assets/icons/adobe_premiere.svg

<svg width="15" height="15" viewBox="0 0 15 15" fill="none" xmlns="http://www.w3.org/2000/svg">
<path d="M0 5.3417C0 3.47194 0 2.53705 0.363881 1.82289C0.683963 1.1947 1.1947 0.683963 1.82289 0.363881C2.53705 0 3.47194 0 5.3417 0H9.4183C11.2881 0 12.223 0 12.9371 0.363881C13.5653 0.683963 14.076 1.1947 14.3961 1.82289C14.76 2.53705 14.76 3.47194 14.76 5.3417V9.4183C14.76 11.2881 14.76 12.223 14.3961 12.9371C14.076 13.5653 13.5653 14.076 12.9371 14.3961C12.223 14.76 11.2881 14.76 9.4183 14.76H5.3417C3.47194 14.76 2.53705 14.76 1.82289 14.3961C1.1947 14.076 0.683963 13.5653 0.363881 12.9371C0 12.223 0 11.2881 0 9.4183V5.3417Z" fill="#00005B"/>
<path d="M3.16286 10.4352V3.79963C3.16286 3.75449 3.18136 3.72869 3.22454 3.72869C3.86198 3.72869 4.49911 3.69 5.13674 3.69C6.17131 3.69 7.2916 4.05058 7.68427 5.15383C7.77678 5.42467 7.82612 5.70195 7.82612 5.99214C7.82612 6.54669 7.70277 7.00452 7.45601 7.36566C6.76683 8.3744 5.57222 8.35875 4.50138 8.35875V10.4287C4.50976 10.49 4.45852 10.519 4.40886 10.519H3.23688C3.18753 10.519 3.16286 10.4932 3.16286 10.4352ZM4.50755 4.97328V7.13994C4.93216 7.17168 5.37644 7.1751 5.78439 7.03678C6.23478 6.90436 6.48143 6.507 6.48143 6.03083C6.49398 5.62509 6.27706 5.23574 5.9078 5.08936C5.50474 4.91851 4.94265 4.90828 4.50755 4.97328Z" fill="#9999FF"/>
<path d="M8.66228 5.38312H9.74482C9.80449 5.3837 9.85811 5.42677 9.87387 5.48697C9.9532 5.6711 9.96301 5.89319 9.96327 6.09197C10.1489 5.86599 10.3728 5.67774 10.6237 5.53652C10.8928 5.37738 11.1978 5.29667 11.507 5.30295C11.5583 5.29525 11.6037 5.34275 11.5964 5.39636V6.65259C11.5964 6.70114 11.5631 6.72528 11.497 6.72528C11.0389 6.69223 10.3255 6.80541 9.99258 7.18211V10.4485C9.99258 10.5108 9.96612 10.542 9.91314 10.542H8.75169C8.69465 10.5505 8.64431 10.4968 8.65237 10.4381V6.89139C8.65237 6.41617 8.66223 5.92661 8.5928 5.45582C8.5821 5.41249 8.62175 5.37221 8.66228 5.38312Z" fill="#9999FF"/>
</svg>

<svg width="15" height="15" viewBox="0 0 15 15" fill="none" xmlns="http://www.w3.org/2000/svg"><path d="M0 5.342c0-1.87 0-2.805.364-3.52A3.34 3.34 0 0 1 1.823.365C2.537 0 3.472 0 5.342 0h4.076c1.87 0 2.805 0 3.52.364a3.34 3.34 0 0 1 1.458 1.459c.364.714.364 1.649.364 3.519v4.076c0 1.87 0 2.805-.364 3.52a3.34 3.34 0 0 1-1.459 1.458c-.714.364-1.649.364-3.519.364H5.342c-1.87 0-2.805 0-3.52-.364a3.34 3.34 0 0 1-1.458-1.459C0 12.223 0 11.288 0 9.418V5.342z" fill="#00005B"/><path d="M3.163 10.435V3.8c0-.046.018-.071.062-.071.637-.001 1.274-.04 1.912-.04 1.034 0 2.155.36 2.547 1.464.093.27.142.548.142.838 0 .555-.123 1.013-.37 1.374-.69 1.008-1.884.993-2.955.993v2.069c.01.06-.041.09-.091.09H3.236c-.05 0-.074-.027-.074-.085zm1.345-5.462V7.14c.424.032.868.035 1.276-.103.45-.133.697-.53.697-1.006.014-.405-.203-.794-.572-.94-.403-.171-.965-.182-1.4-.117z" fill="#9999FF"/><path d="M8.662 5.383h1.083c.06 0 .113.044.129.104.08.184.09.406.09.605.185-.226.409-.414.66-.555.269-.16.574-.24.883-.234.051-.008.097.04.09.093v1.257c0 .048-.034.072-.1.072-.458-.033-1.172.08-1.504.457v3.266c0 .063-.027.094-.08.094H8.752c-.057.009-.108-.045-.1-.104V6.891c0-.474.01-.963-.06-1.434-.01-.044.03-.084.07-.073z" fill="#9999FF"/></svg>
